dist/svg/static/facebook-large.svg

<svg xmlns="http://www.w3.org/2000/svg" width="48" height="48" viewBox="0 0 48 48"><path d="M20.095 20.421H15.1v4.395h4.995V38h5.86V24.816h5.86V20.42h-5.86v-1.769c0-1.327 1.397-4.09 3.432-4.09h2.427v-4.395h-5.127c-7.233 1.053-6.592 10.254-6.592 10.254z" fill="currentColor"/></svg>

<?xml version="1.0" encoding="UTF-8" standalone="no"?>
<svg width="48px" height="48px" viewBox="0 0 48 48" version="1.1" xmlns="http://www.w3.org/2000/svg" xmlns:xlink="http://www.w3.org/1999/xlink">
    <!-- Generator: sketchtool 46.2 (44496) - http://www.bohemiancoding.com/sketch -->
    <title>facebook-large</title>
    <desc>Created with sketchtool.</desc>
    <defs></defs>
    <g id="icons-published" stroke="none" stroke-width="1" fill="none" fill-rule="evenodd">
        <g id="briefing" transform="translate(-2592.000000, -538.000000)"></g>
        <g id="facebook-large" fill-rule="nonzero" fill="#000000">
            <path d="M20.1,20.4 L15.1,20.4 L15.1,24.8 L20.1,24.8 L20.1,38 L26,38 L26,24.8 L31.9,24.8 L31.9,20.4 L26,20.4 L26,18.6 C26,17.3 27.4,14.5 29.4,14.5 L31.8,14.5 L31.8,10.1 L26.7,10.1 C19.5,11.2 20.1,20.4 20.1,20.4 L20.1,20.4 Z" id="Shape"></path>
        </g>
    </g>
</svg>
